X:35
T:Cliffs of Moher
C:Traditional
M:6/8
R:jig
K:Ador
aa/a/a bag | eaf ged | ({B}c2)A BAG | EFG Ace |
aa/a/a bag | eaf ged | ({B}c2)A BAG | EFG A3 :|
|: eg/e/e dBA | eg/e/e dBA | GAB dBA | GAB dBd |
[1 eg/e/e dBA | eg/e/e dBA | GAB dBA | BAG AA/A/A :|
[2 ee/e/e de/e/e | ce/e/e Be/e/e | EFG AGF | EDB, A,3 |]

